storage/app/icons/phosphoricons/light/list-bullets-light.svg

<svg xmlns="http://www.w3.org/2000/svg" fill="currentColor" viewBox="0 0 256 256"><path d="M82 64a6 6 0 0 1 6-6h128a6 6 0 0 1 0 12H88a6 6 0 0 1-6-6m134 58H88a6 6 0 0 0 0 12h128a6 6 0 0 0 0-12m0 64H88a6 6 0 0 0 0 12h128a6 6 0 0 0 0-12M44 54a10 10 0 1 0 10 10 10 10 0 0 0-10-10m0 128a10 10 0 1 0 10 10 10 10 0 0 0-10-10m0-64a10 10 0 1 0 10 10 10 10 0 0 0-10-10"/></svg>

<svg xmlns="http://www.w3.org/2000/svg" viewBox="0 0 256 256" fill="currentColor"><path d="M82,64a6,6,0,0,1,6-6H216a6,6,0,0,1,0,12H88A6,6,0,0,1,82,64Zm134,58H88a6,6,0,0,0,0,12H216a6,6,0,0,0,0-12Zm0,64H88a6,6,0,0,0,0,12H216a6,6,0,0,0,0-12ZM44,54A10,10,0,1,0,54,64,10,10,0,0,0,44,54Zm0,128a10,10,0,1,0,10,10A10,10,0,0,0,44,182Zm0-64a10,10,0,1,0,10,10A10,10,0,0,0,44,118Z"/></svg>
